material/.icons/material/star-outline.svg

<svg xmlns="http://www.w3.org/2000/svg" viewBox="0 0 24 24"><path d="M12 15.39l-3.76 2.27.99-4.28-3.32-2.88 4.38-.37L12 6.09l1.71 4.04 4.38.37-3.32 2.88.99 4.28M22 9.24l-7.19-.61L12 2 9.19 8.63 2 9.24l5.45 4.73L5.82 21 12 17.27 18.18 21l-1.64-7.03L22 9.24z"/></svg>

<?xml version="1.0" encoding="UTF-8"?><!DOCTYPE svg PUBLIC "-//W3C//DTD SVG 1.1//EN" "http://www.w3.org/Graphics/SVG/1.1/DTD/svg11.dtd"><svg xmlns="http://www.w3.org/2000/svg" xmlns:xlink="http://www.w3.org/1999/xlink" version="1.1" id="mdi-star-outline" width="24" height="24" viewBox="0 0 24 24"><path d="M12,15.39L8.24,17.66L9.23,13.38L5.91,10.5L10.29,10.13L12,6.09L13.71,10.13L18.09,10.5L14.77,13.38L15.76,17.66M22,9.24L14.81,8.63L12,2L9.19,8.63L2,9.24L7.45,13.97L5.82,21L12,17.27L18.18,21L16.54,13.97L22,9.24Z" /></svg>
